X: 8738
T: Crys Y Mab
R: jig
M: 6/8
K: Gmajor
dc|:BAG D3|DGB dcB|cAG FGA|EAc edc|
BAB DGB|DGB dcB|cAG FGA|1 BGF Gdc:|2 BGF G2||
d|:ede ~g3|fga bag|fed BAB|Bde fed|
e2d cAG|FGA edc|BAG FGA|1 BAB GAB:|2 BGF G||

